assets/Logo/MB--Logo--CombH-Circle--Blue.svg

<svg fill="none" height="72" viewBox="0 0 250 72" width="250" xmlns="http://www.w3.org/2000/svg" xmlns:xlink="http://www.w3.org/1999/xlink"><clipPath id="a"><path d="m0 0h250v72h-250z"/></clipPath><g clip-path="url(#a)"><path d="m36 72c19.8823 0 36-16.1177 36-36s-16.1177-36-36-36c-19.8822 0-36 16.1177-36 36s16.1178 36 36 36z" fill="#1c68f3"/><path d="m194.803 26.9428c6.598 0 14.094 2.5355 14.542 10.6491h-9.225c-.192-2.3453-2.37-3.4229-5.253-3.4229-2.691 0-3.908 1.0142-3.908 2.2186 0 1.0142.769 1.965 3.203 2.4087l5.83.9508c5.83 1.0776 9.673 3.8667 9.673 9.3181 0 7.0994-6.47 10.3956-14.542 10.3956-8.136 0-14.735-3.3596-15.375-11.5366l9.225.0634c.448 2.6623 2.691 3.8667 5.958 3.8667 2.755 0 4.42-.8241 4.42-2.1552 0-1.0142-.961-1.8383-3.011-2.1552l-6.278-1.0776c-5.381-.8875-9.097-3.8667-9.097-9.2547 0-6.4656 5.573-10.2688 13.838-10.2688zm-38.887.1195c3.389 0 6.203.8865 8.505 2.3428v-1.6463h10.361v30.7102h-10.361v-1.7097c-2.302 1.4564-5.116 2.3429-8.505 2.3429-8.378 0-15.412-6.9019-15.412-16.02 0-9.1813 7.034-16.0199 15.412-16.0199zm-60.683-11.716 15.535 23.0388 15.47-23.0388h8.088v43.1581h-10.848v-21.6425l-9.693 14.788v.0634h-6.034v-.0634l-9.7577-14.915.0642 21.7695h-10.8485v-43.1581zm130.518-1.7933v25.7679l10.841-11.5228h12.381l-11.804 12.5358 12.831 18.1705h-12.446l-7.441-10.6364-4.362 4.6218v6.0146h-10.393v-44.9514zm-67.789 21.8675c-4.22 0-7.29 3.4193-7.29 7.6617 0 4.2425 3.07 7.5984 7.29 7.5984 2.303 0 4.541-.6332 6.459-2.8494v-9.498c-1.918-2.2161-4.156-2.9127-6.459-2.9127z" fill="#1c68f3"/><path clip-rule="evenodd" d="m57.7288 27.1507v11.9552h-36.4407l-1.5678.0001c1.6594 7.2539 8.245 12.6723 16.1165 12.6723 6.5076 0 12.1363-3.7034 14.8292-9.0857l7.0628-.0001v10.0422c0 2.377-1.9578 4.3039-4.3729 4.3039h-34.983c-2.4151 0-4.3729-1.9269-4.3729-4.3039v-25.584zm-11.2569 15.5419c-2.3191 3.337-6.2173 5.5269-10.6351 5.5269-4.4179 0-8.3161-2.1899-10.6351-5.5269zm-19.9606-12.6727c-3.4269 0-6.2619 2.4941-6.7334 5.7385l3.7275.0001c.4098-1.2488 1.6007-2.152 3.0059-2.152s2.596.9032 3.0059 2.152l3.7275-.0001c-.4715-3.2444-3.3065-5.7385-6.7334-5.7385zm18.7062 0c-3.4269 0-6.2619 2.4941-6.7334 5.7385l3.7275.0001c.4099-1.2488 1.6007-2.152 3.0059-2.152s2.5961.9032 3.0059 2.152l3.7275-.0001c-.4715-3.2444-3.3065-5.7385-6.7334-5.7385zm8.1384-16.0199c2.4151 0 4.3729 1.9269 4.3729 4.3039v5.2602h-43.7288v-5.2602c0-2.377 1.9578-4.3039 4.3729-4.3039z" fill="#fff" fill-rule="evenodd"/></g></svg>

<svg width="250" height="72" viewBox="0 0 250 72" fill="none" xmlns="http://www.w3.org/2000/svg">
<g clip-path="url(#clip0)">
<path d="M36 72C55.8823 72 72 55.8823 72 36C72 16.1177 55.8823 0 36 0C16.1178 0 0 16.1177 0 36C0 55.8823 16.1178 72 36 72Z" fill="#1C68F3"/>
<path d="M194.803 26.9428C201.401 26.9428 208.897 29.4783 209.345 37.5919H200.12C199.928 35.2466 197.75 34.169 194.867 34.169C192.176 34.169 190.959 35.1832 190.959 36.3876C190.959 37.4018 191.728 38.3526 194.162 38.7963L199.992 39.7471C205.822 40.8247 209.665 43.6138 209.665 49.0652C209.665 56.1646 203.195 59.4608 195.123 59.4608C186.987 59.4608 180.388 56.1012 179.748 47.9242L188.973 47.9876C189.421 50.6499 191.664 51.8543 194.931 51.8543C197.686 51.8543 199.351 51.0302 199.351 49.6991C199.351 48.6849 198.39 47.8608 196.34 47.5439L190.062 46.4663C184.681 45.5788 180.965 42.5996 180.965 37.2116C180.965 30.746 186.538 26.9428 194.803 26.9428ZM155.916 27.0623C159.305 27.0623 162.119 27.9488 164.421 29.4051V27.7588H174.782V58.469H164.421V56.7593C162.119 58.2157 159.305 59.1022 155.916 59.1022C147.538 59.1022 140.504 52.2003 140.504 43.0822C140.504 33.9009 147.538 27.0623 155.916 27.0623ZM95.233 15.3463L110.768 38.3851L126.238 15.3463H134.326V58.5044H123.478V36.8619L113.785 51.6499V51.7133H107.751V51.6499L97.9933 36.7349L98.0575 58.5044H87.209V15.3463H95.233ZM225.751 13.553V39.3209L236.592 27.7981H248.973L237.169 40.3339L250 58.5044H237.554L230.113 47.868L225.751 52.4898V58.5044H215.358V13.553H225.751ZM157.962 35.4205C153.742 35.4205 150.672 38.8398 150.672 43.0822C150.672 47.3247 153.742 50.6806 157.962 50.6806C160.265 50.6806 162.503 50.0474 164.421 47.8312V38.3332C162.503 36.1171 160.265 35.4205 157.962 35.4205Z" fill="#1C68F3"/>
<path fill-rule="evenodd" clip-rule="evenodd" d="M57.7288 27.1507V39.1059H21.2881L19.7203 39.106C21.3797 46.3599 27.9653 51.7783 35.8368 51.7783C42.3444 51.7783 47.9731 48.0749 50.666 42.6926L57.7288 42.6925V52.7347C57.7288 55.1117 55.771 57.0386 53.3559 57.0386H18.3729C15.9578 57.0386 14 55.1117 14 52.7347V27.1507H57.7288ZM46.4719 42.6926C44.1528 46.0296 40.2546 48.2195 35.8368 48.2195C31.4189 48.2195 27.5207 46.0296 25.2017 42.6926H46.4719ZM26.5113 30.0199C23.0844 30.0199 20.2494 32.514 19.7779 35.7584L23.5054 35.7585C23.9152 34.5097 25.1061 33.6065 26.5113 33.6065C27.9165 33.6065 29.1073 34.5097 29.5172 35.7585L33.2447 35.7584C32.7732 32.514 29.9382 30.0199 26.5113 30.0199ZM45.2175 30.0199C41.7906 30.0199 38.9556 32.514 38.4841 35.7584L42.2116 35.7585C42.6215 34.5097 43.8123 33.6065 45.2175 33.6065C46.6227 33.6065 47.8136 34.5097 48.2234 35.7585L51.9509 35.7584C51.4794 32.514 48.6444 30.0199 45.2175 30.0199ZM53.3559 14C55.771 14 57.7288 15.9269 57.7288 18.3039V23.5641H14V18.3039C14 15.9269 15.9578 14 18.3729 14H53.3559Z" fill="white"/>
</g>
<defs>
<clipPath id="clip0">
<rect width="250" height="72" fill="white"/>
</clipPath>
</defs>
</svg>
